X: 514
T: Dawg's Waltz
C:David Grisman
B: jims roots
M:3/4
L:1/8
Q: 1/4=100
K:D
V:1 
xDFA || "D"(d2 d)f dA | "D7"=c4 (3dc=c | "G"(B2 B)d (3BdB G |
"C7"^A4=AG | "D"F2 G2 A2 | "D7 (1) "d2 e2 [f2a2]| "Gm"[^a6g6]| "C7 (2,3)"[_B4e4] (3DFA ||
"D"(d2 d)f dA | "D7"=c4 (3dc=c | "G"(B2 B)d BG | "C7"_B4 AG |
"D"F2 D2 B,_B, | "A7"A,3 =F (3EDB, | "D"([D2F2] [D2F2]) [DF][FC] | "D7"([F2=C2] [F2=C2]) "(2)"(3DEG ||
"G (3)"B "(1)"d3 "(3)"{e}f | "F#7"{d}e4 (3ded | "Bm"{e}f a3 "(4)"e'2 | "D7 (3)"d'4 "(2)"b"(3)"d' |
"G (2)"b "(3)"g3 (3d'bg | "C7"e4 de | "D"[f2a2] [g2b2] [^g2=c'2] | "A"[a2^c'2] zD FA ||
"D"d3f dA | "D7"=c4 (3d_dc | "G"B4 (3c=cB | "C7"_B4 (3=c=B_B | "D"A2 F2 D2 |
"A7"A,3 =F (3EDB, | "D"D4 z2 | "(2,3)"(3AfA (3^G=fG (3=G=fG | [F4d4] ||
% abcbook-tune_id 6298c245d8d0e899690ad2c9


% abcbook-boost 0
% abcbook-tablature 
% abcbook-transpose 
% abcbook-lastupdated 1654178373955
% abcbook-soundfonts 
% abcbook-repeats 1


